public/icons/electron-icon.svg

<svg width="128" height="128" viewBox="0 0 128 128" fill="none" xmlns="http://www.w3.org/2000/svg">
<g clip-path="url(#clip0_45_65)">
<path d="M98 0H30C13.4315 0 0 13.4315 0 30V98C0 114.569 13.4315 128 30 128H98C114.569 128 128 114.569 128 98V30C128 13.4315 114.569 0 98 0Z" fill="#2B2E3A"/>
<path d="M50.384 35.386C37.3815 33.018 27.1005 35.4965 23.003 42.5935C19.9455 47.8895 20.8195 54.911 25.123 62.4165C25.2297 62.6115 25.3833 62.7767 25.57 62.8973C25.7567 63.0178 25.9705 63.0898 26.1921 63.1068C26.4137 63.1238 26.636 63.0852 26.8389 62.9945C27.0418 62.9038 27.2188 62.7639 27.354 62.5875C27.4616 62.4463 27.54 62.285 27.5846 62.1131C27.6292 61.9413 27.639 61.7622 27.6135 61.5865C27.5875 61.4109 27.5272 61.2422 27.436 61.09C23.56 54.329 22.8055 48.2695 25.3125 43.927C28.7165 38.0315 37.8865 35.8205 49.906 38.0095C50.2514 38.067 50.6055 37.9864 50.892 37.785C51.1784 37.5836 51.3741 37.2776 51.4369 36.9331C51.4997 36.5887 51.4244 36.2333 51.2274 35.9438C51.0304 35.6544 50.7275 35.454 50.384 35.386ZM31.8845 71.5395C37.142 77.317 43.9725 82.7365 51.7625 87.2335C70.624 98.1235 90.704 101.034 100.6 94.2865C100.748 94.1894 100.875 94.0638 100.974 93.9169C101.073 93.7699 101.142 93.6048 101.176 93.431C101.228 93.1694 101.201 92.8981 101.097 92.6523C100.993 92.4066 100.818 92.1978 100.593 92.053C100.37 91.9077 100.108 91.833 99.8408 91.8384C99.5741 91.8439 99.3151 91.9293 99.0975 92.0835C90.2405 98.1225 71.1665 95.3575 53.096 84.9245C45.539 80.5615 38.9245 75.3135 33.857 69.7445C33.7392 69.6143 33.597 69.5086 33.4384 69.4334C33.2797 69.3583 33.1078 69.3151 32.9325 69.3065C32.7571 69.2977 32.5817 69.3237 32.4164 69.3829C32.2511 69.4421 32.0992 69.5334 31.9693 69.6516C31.8394 69.7698 31.7342 69.9124 31.6596 70.0714C31.5851 70.2304 31.5427 70.4026 31.535 70.578C31.5272 70.7534 31.554 70.9286 31.614 71.0936C31.6739 71.2585 31.7659 71.4101 31.8845 71.5395Z" fill="#9FEAF9"/>
<path d="M97.4431 69.9175C105.957 59.8595 108.93 49.7435 104.841 42.6615C101.832 37.45 95.4716 34.6985 87.0181 34.5885C86.7567 34.5887 86.5012 34.6656 86.2832 34.8099C86.0653 34.9541 85.8945 35.1592 85.7922 35.3998C85.6899 35.6403 85.6606 35.9055 85.7079 36.1626C85.7551 36.4196 85.8769 36.6571 86.0581 36.8455C86.3009 37.0982 86.6333 37.2453 86.9836 37.255C94.5861 37.354 100.066 39.7245 102.532 43.995C105.928 49.8775 103.277 58.8985 95.4076 68.1945C95.292 68.3277 95.204 68.4826 95.1488 68.6502C95.0936 68.8178 95.0723 68.9946 95.0861 69.1705C95.0996 69.3465 95.1481 69.5175 95.2286 69.6745C95.3085 69.8318 95.419 69.9716 95.5536 70.0856C95.6882 70.1996 95.8443 70.2856 96.0126 70.3385C96.1811 70.392 96.3581 70.4115 96.5336 70.3955C96.7092 70.3794 96.8799 70.3292 97.0361 70.2475C97.1926 70.1655 97.3306 70.0535 97.4431 69.9175ZM75.5626 35.83C67.8646 37.4795 59.6706 40.7045 51.8016 45.2475C32.3306 56.489 19.6291 73.0655 21.3931 85.085C21.4164 85.26 21.4743 85.4286 21.5634 85.5809C21.6525 85.7333 21.771 85.8664 21.9121 85.9725C22.1242 86.1329 22.3796 86.226 22.6452 86.2399C22.9108 86.2537 23.1745 86.1875 23.4021 86.05C23.5534 85.9592 23.6852 85.8392 23.7896 85.6969C23.8941 85.5547 23.9692 85.3931 24.0106 85.2215C24.0518 85.0499 24.0589 84.8719 24.0316 84.6975C22.4651 74.0255 34.5051 58.313 53.1351 47.557C60.7686 43.1495 68.7026 40.027 76.1211 38.4375C76.3384 38.3943 76.5415 38.2978 76.7121 38.1566C76.8828 38.0153 77.0156 37.8339 77.0986 37.6285C77.1816 37.4232 77.2123 37.2004 77.1877 36.9803C77.1632 36.7601 77.0843 36.5495 76.9581 36.3675C76.8568 36.2225 76.7277 36.0989 76.5784 36.004C76.4291 35.9091 76.2624 35.8447 76.0881 35.8145C75.9136 35.7852 75.7351 35.7904 75.5626 35.83Z" fill="#9FEAF9"/>
<path d="M44.018 93.4176C48.47 105.848 55.7525 113.501 63.9415 113.501C69.914 113.501 75.4395 109.43 79.7485 102.262C79.8417 102.112 79.9041 101.945 79.9322 101.77C79.9603 101.596 79.9534 101.417 79.912 101.246C79.8709 101.074 79.796 100.911 79.6915 100.769C79.587 100.626 79.4551 100.506 79.3035 100.414C79.1519 100.323 78.9837 100.263 78.8086 100.238C78.6335 100.213 78.4552 100.223 78.284 100.267C78.113 100.311 77.9524 100.389 77.8115 100.496C77.6706 100.602 77.5522 100.736 77.463 100.888C73.5905 107.33 68.834 110.834 63.9415 110.834C57.139 110.834 50.6435 104.008 46.529 92.5191C46.4728 92.3508 46.3836 92.1954 46.2664 92.0621C46.1493 91.9289 46.0067 91.8204 45.847 91.743C45.6067 91.6258 45.3367 91.5838 45.0722 91.6223C44.8076 91.6608 44.5608 91.7782 44.364 91.9591C44.2335 92.0791 44.1281 92.2239 44.0539 92.385C43.9798 92.5461 43.9383 92.7203 43.932 92.8976C43.926 93.0751 43.955 93.2521 44.018 93.4176ZM84.679 90.9861C86.984 83.6221 88.2215 75.1271 88.2215 66.2746C88.2215 44.1851 80.49 25.1431 69.478 20.2536C69.1563 20.1188 68.7946 20.1155 68.4705 20.2442C68.1464 20.373 67.8856 20.6236 67.7441 20.9424C67.6025 21.2612 67.5915 21.6227 67.7134 21.9495C67.8353 22.2763 68.0803 22.5423 68.396 22.6906C78.2175 27.0521 85.5545 45.1236 85.5545 66.2746C85.5545 74.8631 84.356 83.0896 82.1345 90.1896C82.0515 90.4425 82.046 90.7144 82.1187 90.9705C82.1914 91.2265 82.339 91.455 82.5425 91.6266C82.7465 91.7974 82.9967 91.9036 83.2614 91.9315C83.526 91.9594 83.7929 91.9077 84.028 91.7831C84.1839 91.6999 84.3218 91.5867 84.4337 91.4499C84.5455 91.3131 84.6286 91.1554 84.679 90.9861ZM109.791 89.6801C109.791 86.1556 106.934 83.2986 103.41 83.2986C99.885 83.2986 97.028 86.1556 97.028 89.6801C97.028 93.2046 99.885 96.0616 103.41 96.0616C106.934 96.0616 109.791 93.2046 109.791 89.6801ZM107.124 89.6801C107.124 90.1681 107.028 90.6511 106.841 91.1016C106.655 91.5525 106.382 91.9622 106.037 92.3073C105.692 92.6524 105.282 92.926 104.831 93.1126C104.267 93.3461 103.653 93.4368 103.045 93.3768C102.437 93.3168 101.854 93.1078 101.346 92.7684C100.838 92.429 100.422 91.9696 100.134 91.431C99.8455 90.8923 99.6947 90.2909 99.6945 89.6801C99.6949 88.9455 99.9131 88.2275 100.321 87.6169C100.73 87.0062 101.31 86.5303 101.988 86.2491C102.667 85.968 103.414 85.8944 104.134 86.0374C104.855 86.1805 105.517 86.534 106.036 87.0531C106.381 87.398 106.655 87.8076 106.842 88.2583C107.028 88.7091 107.125 89.1922 107.124 89.6801ZM24.3815 96.0616C27.9065 96.0616 30.7635 93.2046 30.7635 89.6801C30.7635 86.1556 27.906 83.2986 24.3815 83.2986C20.857 83.2986 18 86.1556 18 89.6801C18 93.2046 20.8575 96.0616 24.3815 96.0616ZM24.3815 93.3951C23.6468 93.3949 22.9287 93.1769 22.3179 92.7686C21.7071 92.3604 21.231 91.7802 20.9498 91.1014C20.6687 90.4227 20.5951 89.6758 20.7383 88.9552C20.8815 88.2346 21.2352 87.5727 21.7545 87.0531C22.2741 86.5337 22.9361 86.1801 23.6567 86.0368C24.3773 85.8936 25.1241 85.9672 25.8029 86.2484C26.4816 86.5296 27.0618 87.0056 27.4701 87.6164C27.8783 88.2272 28.0963 88.9454 28.0965 89.6801C28.0965 90.6653 27.7051 91.6103 27.0084 92.307C26.3117 93.0037 25.3668 93.3951 24.3815 93.3951Z" fill="#9FEAF9"/>
<path d="M63.9416 26.763C67.4661 26.763 70.3231 23.906 70.3231 20.3815C70.3231 16.857 67.4661 14 63.9416 14C60.4171 14 57.5601 16.857 57.5601 20.3815C57.5601 23.906 60.4171 26.763 63.9416 26.763ZM63.9416 24.0965C62.9562 24.0965 62.0112 23.7051 61.3145 23.0083C60.6177 22.3116 60.2263 21.3666 60.2263 20.3813C60.2263 19.3959 60.6177 18.4509 61.3145 17.7542C62.0112 17.0574 62.9562 16.666 63.9416 16.666C64.9269 16.666 65.8719 17.0574 66.5686 17.7542C67.2654 18.4509 67.6568 19.3959 67.6568 20.3813C67.6568 21.3666 67.2654 22.3116 66.5686 23.0083C65.8719 23.7051 64.9269 24.0965 63.9416 24.0965ZM64.9161 70.7875C62.4236 71.326 59.9681 69.742 59.4286 67.2495C59.3004 66.6568 59.2903 66.0447 59.3988 65.4482C59.5073 64.8516 59.7322 64.2822 60.0607 63.7726C60.3893 63.263 60.815 62.8231 61.3136 62.478C61.8122 62.1329 62.3739 61.8895 62.9666 61.7615C65.4591 61.223 67.9146 62.807 68.4546 65.2995C68.9931 67.792 67.4091 70.248 64.9161 70.7875Z" fill="#9FEAF9"/>
</g>
<defs>
<clipPath id="clip0_45_65">
<rect width="128" height="128" fill="white"/>
</clipPath>
</defs>
</svg>

<svg xmlns="http://www.w3.org/2000/svg" width="128" height="128" fill="none"><g clip-path="url(#a)"><path fill="#2B2E3A" d="M98 0H30C13.431 0 0 13.431 0 30v68c0 16.569 13.431 30 30 30h68c16.569 0 30-13.431 30-30V30c0-16.569-13.431-30-30-30Z"/><path fill="#9FEAF9" d="M50.384 35.386c-13.002-2.368-23.284.11-27.381 7.207-3.058 5.296-2.183 12.318 2.12 19.823a1.335 1.335 0 0 0 2.462-.303 1.334 1.334 0 0 0-.149-1.023c-3.876-6.761-4.63-12.82-2.123-17.163 3.404-5.895 12.573-8.106 24.593-5.917a1.334 1.334 0 0 0 .478-2.624Zm-18.5 36.154c5.258 5.777 12.088 11.197 19.879 15.694 18.861 10.89 38.941 13.8 48.837 7.053a1.332 1.332 0 0 0-.76-2.449c-.266.006-.525.091-.743.246-8.856 6.038-27.93 3.273-46.001-7.16-7.557-4.363-14.171-9.61-19.239-15.18a1.337 1.337 0 0 0-1.888-.092 1.333 1.333 0 0 0-.085 1.888Z"/><path fill="#9FEAF9" d="M97.443 69.918c8.514-10.059 11.487-20.175 7.398-27.257-3.009-5.211-9.37-7.962-17.823-8.072a1.333 1.333 0 0 0-.034 2.666c7.602.099 13.082 2.47 15.548 6.74 3.396 5.883.745 14.904-7.124 24.2a1.33 1.33 0 0 0-.18 1.48 1.325 1.325 0 0 0 1.306.72 1.35 1.35 0 0 0 .91-.477ZM75.563 35.83c-7.698 1.65-15.892 4.875-23.761 9.418C32.33 56.489 19.629 73.066 21.393 85.085a1.33 1.33 0 0 0 1.252 1.155 1.33 1.33 0 0 0 1.145-.543 1.33 1.33 0 0 0 .242-1c-1.567-10.672 10.473-26.384 29.103-37.14 7.634-4.407 15.568-7.53 22.986-9.12a1.335 1.335 0 0 0-.033-2.622 1.35 1.35 0 0 0-.525.015Z"/><path fill="#9FEAF9" d="M44.018 93.418c4.452 12.43 11.734 20.083 19.923 20.083 5.973 0 11.498-4.071 15.808-11.239a1.331 1.331 0 0 0-.057-1.493 1.341 1.341 0 0 0-.883-.531 1.344 1.344 0 0 0-.998.258c-.14.106-.259.24-.348.392-3.872 6.442-8.629 9.946-13.521 9.946-6.803 0-13.298-6.826-17.413-18.315a1.33 1.33 0 0 0-1.457-.897 1.33 1.33 0 0 0-1.018.763 1.34 1.34 0 0 0-.036 1.033Zm40.661-2.432c2.305-7.364 3.543-15.859 3.543-24.711 0-22.09-7.732-41.132-18.744-46.021a1.334 1.334 0 0 0-1.082 2.437c9.822 4.361 17.159 22.433 17.159 43.584 0 8.588-1.199 16.815-3.42 23.915a1.335 1.335 0 0 0 1.893 1.593 1.338 1.338 0 0 0 .651-.797Zm25.112-1.306a6.381 6.381 0 1 0-12.763 0 6.381 6.381 0 0 0 12.763 0Zm-2.667 0c0 .488-.096.971-.283 1.422a3.701 3.701 0 0 1-2.01 2.01 3.717 3.717 0 0 1-5.136-3.432 3.718 3.718 0 0 1 2.293-3.43 3.718 3.718 0 0 1 4.854 2.008c.186.451.283.934.282 1.422Zm-82.742 6.382a6.381 6.381 0 1 0 0-12.763 6.381 6.381 0 0 0 0 12.763Zm0-2.667a3.715 3.715 0 1 1 .001-7.43 3.715 3.715 0 0 1-.002 7.43Z"/><path fill="#9FEAF9" d="M63.942 26.763a6.381 6.381 0 1 0 0-12.763 6.381 6.381 0 0 0 0 12.763Zm0-2.667a3.715 3.715 0 1 1 0-7.43 3.715 3.715 0 0 1 0 7.43Zm.974 46.691a4.617 4.617 0 1 1-1.95-9.026 4.617 4.617 0 0 1 1.95 9.026Z"/></g><defs><clipPath id="a"><path fill="#fff" d="M0 0h128v128H0z"/></clipPath></defs></svg>
